X: 54
T:Tickle The Strings (#250)
M:4/4
L:1/8
S:Patrick Stack, Chicago
R:Reel
K:G
d2 BA Bcde|dBAc BG G2|GBBd ceeg|1fgaf gfge:|2fgaf gfgf||
g2 bg agbf|g2 bg agef|g2 bg agba|gede g2 gg|
dgbg dgbg|dgbg agec|Bcdg edeg|fgaf gfge||

